X:1
T:Ce sont les filles de Lorient, jolies...
C:Traditionnel Bretagne, fichier abc : Bernard Loffet
L:1/8
Q:336
M:3/4
K:C
 [A2A,,2] [A2A,2] [e2A,2] | [e2A,,2] A,2 A,2 | [d2G,,2] [c2G,2] [A2G,2] | [e2A,,2] A,f [e2A,2] | \
 A,,2 A,2 A,2 | A,,2 A,2 A,2 | [A2A,,2] [A2A,2] [e2A,2] | [e2A,,2] A,2 A,2 | [d2G,,2] [e2G,2] [f2G,2] | \
 [e2C,,2] C,2 C,2 | C,,2 C,2 [e2C,2] | [d2G,,2] G,2 G,2 | [d2G,,2] [c2G,2] [d2G,2] | \
 [e2A,,2] A,d [c2A,2] | [A2A,,2] A,2 A,2 | A,,2 A,2 [e2A,2] | [d2D,,2] D,2 D,2 | [d2D,,2] [e2D,2] [f2D,2] | \
 [e2E,,2] E,2 E,2 | E,,2 E,2 E,2 | E,,2 E,2 E,2 | \
W:Created with TablEdit http://www.tabledit.com/ by Bernard Loffet
